X:1
T:Rights of Man, The
R:hornpipe
L:1/8
M:4/4
K:G
GA|"Em"(3BcB (3ABA (3GAG (3FGF|EFGA B2 ef|gfed edBd|"C"cBAG "D"A2 GA |
"Em"(3BcB (3ABA (3GAG (3FGF|EFGA B2 ef|gfed "D"Bgfg|"Em"e2 E2 E2:|
ga|"Em"babg efga|babg egfe|"D"d2 d^c defg|afbf afdf |
"Em"edef "D"gfga|"G"(3bag (3agf "Bm6"gfef|"Em"gfed "Bm"Bgfg|"Em"e2 E2 E2:|

